X: 37861
T: Sorry I Am For What I Have Done
R: jig
M: 6/8
K: Gmajor
ddd BBA|GAG EED|EAA A2B|AGE ADD|
ddd BBA|GAG EED|GAB dBA|1 AGG G2 z:|2 AGG G2B||
BEE GEE|BEE dcB|ADD FDD|ADD dcB|
AEE GEE|BEE FED|GAB dBA|1 AGG G2B:|2 AGG G2 z||

